public/loader/loader-texture-dark.svg

<svg width="1994" height="109" viewBox="0 0 1994 109" fill="none" xmlns="http://www.w3.org/2000/svg">
<g clip-path="url(#clip0_1147_74)">
<path d="M29.8618 107.246H0V1.26172H30.0104C40.8556 1.26172 48.7049 3.24089 53.558 7.19923C58.4112 11.1576 60.9368 17.6393 61.1349 26.6445C61.4321 36.4909 61.5806 45.6693 61.5806 54.1797C61.5806 62.6406 61.4321 71.8187 61.1349 81.7146C60.9368 90.8187 58.4112 97.3503 53.558 101.309C48.7049 105.267 40.8061 107.246 29.8618 107.246ZM17.3822 16.9961V91.5116H29.8618C38.9738 91.5116 43.6041 88.939 43.7527 83.7932C44.3965 64.1003 44.3965 44.3581 43.7527 24.5664C43.6041 19.5195 39.0233 16.9961 30.0104 16.9961H17.3822ZM123.384 107.246H71.46V1.26172H123.384V16.9961H88.8423V45.5703H121.378V61.3047H88.8423V91.5116H123.384V107.246ZM161.268 108.434C150.374 108.434 142.574 106.529 137.869 102.719C133.165 98.8595 130.614 92.4521 130.218 83.4961C129.822 78.3503 129.946 73.081 130.59 67.6875H147.229C146.932 71.1018 146.758 74.4414 146.709 77.7068C146.709 80.9729 146.882 84.0155 147.229 86.8357C147.476 89.1119 148.665 90.8688 150.795 92.1057C152.973 93.2932 156.44 93.8866 161.194 93.8866C165.899 93.8866 169.266 93.2932 171.296 92.1057C173.377 90.8688 174.565 89.1119 174.862 86.8357C175.209 84.2631 175.358 81.8387 175.308 79.5625C175.258 77.2369 175.11 74.7878 174.862 72.2146C174.615 70.0872 173.822 68.2068 172.485 66.5741C171.148 64.9414 168.498 63.8527 164.537 63.3086L152.206 60.711C146.362 59.5729 141.856 57.9401 138.686 55.8125C135.566 53.6849 133.363 51.013 132.075 47.7969C130.788 44.5807 130.045 40.7956 129.847 36.4414C129.748 34.3633 129.698 32.3841 129.698 30.5039C129.748 28.6237 129.822 26.7435 129.921 24.8633C130.218 16.0065 132.719 9.64845 137.424 5.78906C142.128 1.92969 150.052 0 161.194 0C171.693 0 179.295 1.92969 183.999 5.78906C188.703 9.64845 191.229 16.0065 191.576 24.8633C191.724 26.8424 191.749 29.2917 191.65 32.211C191.601 35.0807 191.501 37.8269 191.353 40.4492H174.565C175.011 33.9674 175.06 27.6589 174.714 21.5235C174.317 16.8724 169.786 14.5469 161.12 14.5469C156.415 14.5469 153.023 15.1406 150.943 16.3281C148.863 17.5156 147.675 19.2474 147.377 21.5235C147.031 23.9974 146.858 26.4961 146.858 29.0195C146.907 31.4935 147.08 33.9674 147.377 36.4414C147.625 38.6185 148.418 40.4987 149.755 42.082C151.091 43.6159 153.865 44.6549 158.074 45.1992L169.44 47.3515C175.481 48.4401 180.112 50.0977 183.331 52.3242C186.549 54.5508 188.803 57.3216 190.09 60.6367C191.427 63.9021 192.195 67.7616 192.393 72.2146C192.542 74.1937 192.591 76.0988 192.542 77.9298C192.492 79.7607 192.393 81.6158 192.244 83.4961C191.848 92.4521 189.273 98.8595 184.519 102.719C179.814 106.529 172.064 108.434 161.268 108.434ZM220.546 107.246H203.164V1.26172H220.546V107.246ZM263.779 108.434C252.884 108.434 245.109 106.529 240.454 102.719C235.848 98.8595 233.397 92.4521 233.1 83.4961C232.853 78.0039 232.679 71.794 232.58 64.8673C232.531 57.9401 232.531 51.0625 232.58 44.2344C232.679 37.3568 232.853 31.2461 233.1 25.9023C233.397 16.5013 235.873 9.84637 240.528 5.9375C245.233 1.97917 252.958 0 263.705 0C273.956 0 281.433 1.92969 286.138 5.78906C290.843 9.64845 293.443 16.0065 293.938 24.8633C294.186 27.1393 294.285 29.737 294.235 32.6562C294.235 35.5261 294.136 38.1237 293.938 40.4492H276.556C276.754 37.7773 276.853 34.6354 276.853 31.0235C276.902 27.362 276.803 24.1953 276.556 21.5235C276.159 16.8724 271.876 14.5469 263.705 14.5469C255.137 14.5469 250.73 16.8724 250.482 21.5235C250.135 28.1536 249.913 35.2539 249.814 42.8242C249.714 50.3945 249.714 57.9648 249.814 65.5354C249.962 73.1057 250.185 80.206 250.482 86.8357C250.581 89.1119 251.695 90.8688 253.825 92.1057C255.954 93.2932 259.272 93.8866 263.779 93.8866C272.544 93.8866 277.2 91.5363 277.744 86.8357C277.843 84.9059 277.892 82.4815 277.892 79.5625C277.892 76.5941 277.843 74.169 277.744 72.2893H264.448V56.7773H294.755C294.953 60.6862 295.052 65.0155 295.052 69.7655C295.052 74.5155 294.903 79.0926 294.607 83.4961C294.26 92.4521 291.684 98.8595 286.881 102.719C282.077 106.529 274.377 108.434 263.779 108.434ZM321.422 107.246H304.56V1.26172H331.376L339.993 35.0312L350.393 91.5116H354.479L351.284 45.2735L350.022 1.26172H366.884V107.246H338.954L329.816 71.9182L321.348 16.9219H317.114L320.011 66.7229L321.422 107.246ZM473.331 107.246H455.949V16.9961H435.744V1.26172H493.462V16.9961H473.331V107.246ZM517.01 107.246H499.627V1.26172H517.01V45.5703H543.974V1.26172H561.357V107.246H543.974V61.3047H517.01V107.246ZM585.87 107.246H567.968L585.944 1.26172H616.103L634.078 107.246H616.252L612.463 83.4961H589.733L585.87 107.246ZM594.561 44.3828L591.292 67.7616H610.829L607.635 44.3828L603.772 16.9961H598.423L594.561 44.3828ZM673.746 107.246H656.365V16.9961H636.157V1.26172H693.878V16.9961H673.746V107.246ZM792.897 108.434C782.153 108.434 774.477 106.529 769.868 102.719C765.311 98.8595 762.908 92.4768 762.661 83.5702C762.464 78.0286 762.319 71.7446 762.217 64.7191C762.167 57.6927 762.167 50.6667 762.217 43.6406C762.319 36.6146 762.464 30.306 762.661 24.7148C762.864 17.0456 765.311 11.0091 770.02 6.60548C774.724 2.20182 782.324 0 792.821 0C803.369 0 811.02 1.92969 815.774 5.78906C820.579 9.64845 823.127 16.0065 823.425 24.8633C823.526 27.0898 823.552 29.6875 823.501 32.6562C823.45 35.5755 823.38 38.1732 823.279 40.4492H805.898C805.993 37.8269 806.044 34.6849 806.044 31.0235C806.095 27.3125 806.069 24.1706 805.968 21.5977C805.923 19.2721 804.858 17.5404 802.779 16.4023C800.694 15.2148 797.379 14.6211 792.821 14.6211C788.466 14.6211 785.271 15.2148 783.237 16.4023C781.259 17.5404 780.194 19.2721 780.048 21.5977C779.801 28.2279 779.624 35.3281 779.529 42.8985C779.427 50.4193 779.427 57.9648 779.529 65.5354C779.624 73.1057 779.801 80.206 780.048 86.8357C780.194 89.1613 781.284 90.9182 783.313 92.1057C785.348 93.2932 788.536 93.8866 792.897 93.8866C797.702 93.8866 801.195 93.2932 803.369 92.1057C805.549 90.9182 806.69 89.1613 806.785 86.8357C806.887 84.2137 806.912 81.047 806.862 77.3357C806.811 73.5756 806.741 70.3842 806.64 67.7616H824.097C824.243 70.186 824.319 72.8086 824.319 75.6289C824.369 78.4491 824.319 81.0964 824.173 83.5702C823.824 92.4768 821.225 98.8595 816.37 102.719C811.565 106.529 803.743 108.434 792.897 108.434ZM850.986 107.246H833.605V1.26172H850.986V45.5703H877.951V1.26172H895.332V107.246H877.951V61.3047H850.986V107.246ZM919.845 107.246H901.944L919.921 1.26172H950.081L968.058 107.246H950.227L946.442 83.4961H923.711L919.845 107.246ZM928.535 44.3828L925.271 67.7616H944.807L941.612 44.3828L937.752 16.9961H932.402L928.535 44.3828ZM991.454 107.246H974.593V1.26172H1001.41L1010.03 35.0312L1020.42 91.5116H1024.51L1021.32 45.2735L1020.05 1.26172H1036.92V107.246H1008.99L999.847 71.9182L991.378 16.9219H987.144L990.047 66.7229L991.454 107.246ZM1078.22 108.434C1067.32 108.434 1059.55 106.529 1054.89 102.719C1050.28 98.8595 1047.84 92.4521 1047.54 83.4961C1047.29 78.0039 1047.12 71.794 1047.02 64.8673C1046.97 57.9401 1046.97 51.0625 1047.02 44.2344C1047.12 37.3568 1047.29 31.2461 1047.54 25.9023C1047.84 16.5013 1050.31 9.84637 1054.97 5.9375C1059.67 1.97917 1067.4 0 1078.14 0C1088.39 0 1095.87 1.92969 1100.58 5.78906C1105.28 9.64845 1107.88 16.0065 1108.37 24.8633C1108.63 27.1393 1108.72 29.737 1108.67 32.6562C1108.67 35.5261 1108.58 38.1237 1108.37 40.4492H1090.99C1091.2 37.7773 1091.29 34.6354 1091.29 31.0235C1091.34 27.362 1091.24 24.1953 1090.99 21.5235C1090.6 16.8724 1086.31 14.5469 1078.14 14.5469C1069.57 14.5469 1065.17 16.8724 1064.92 21.5235C1064.57 28.1536 1064.35 35.2539 1064.26 42.8242C1064.15 50.3945 1064.15 57.9648 1064.26 65.5354C1064.4 73.1057 1064.62 80.206 1064.92 86.8357C1065.02 89.1119 1066.13 90.8688 1068.26 92.1057C1070.39 93.2932 1073.71 93.8866 1078.22 93.8866C1086.98 93.8866 1091.64 91.5363 1092.18 86.8357C1092.28 84.9059 1092.33 82.4815 1092.33 79.5625C1092.33 76.5941 1092.28 74.169 1092.18 72.2893H1078.89V56.7773H1109.19C1109.39 60.6862 1109.49 65.0155 1109.49 69.7655C1109.49 74.5155 1109.34 79.0926 1109.05 83.4961C1108.7 92.4521 1106.12 98.8595 1101.32 102.719C1096.51 106.529 1088.82 108.434 1078.22 108.434ZM1170.93 107.246H1119V1.26172H1170.93V16.9961H1136.38V45.5703H1168.92V61.3047H1136.38V91.5116H1170.93V107.246ZM1208.81 108.434C1197.91 108.434 1190.11 106.529 1185.41 102.719C1180.71 98.8595 1178.15 92.4521 1177.76 83.4961C1177.36 78.3503 1177.49 73.081 1178.13 67.6875H1194.77C1194.47 71.1018 1194.3 74.4414 1194.25 77.7068C1194.25 80.9729 1194.42 84.0155 1194.77 86.8357C1195.01 89.1119 1196.2 90.8688 1198.33 92.1057C1200.51 93.2932 1203.98 93.8866 1208.74 93.8866C1213.44 93.8866 1216.81 93.2932 1218.83 92.1057C1220.91 90.8688 1222.1 89.1119 1222.4 86.8357C1222.74 84.2631 1222.9 81.8387 1222.85 79.5625C1222.8 77.2369 1222.65 74.7878 1222.4 72.2146C1222.16 70.0872 1221.36 68.2068 1220.03 66.5741C1218.69 64.9414 1216.04 63.8527 1212.08 63.3086L1199.75 60.711C1193.9 59.5729 1189.4 57.9401 1186.23 55.8125C1183.11 53.6849 1180.9 51.013 1179.62 47.7969C1178.33 44.5807 1177.58 40.7956 1177.38 36.4414C1177.29 34.3633 1177.24 32.3841 1177.24 30.5039C1177.29 28.6237 1177.36 26.7435 1177.46 24.8633C1177.76 16.0065 1180.26 9.64845 1184.97 5.78906C1189.67 1.92969 1197.59 0 1208.74 0C1219.23 0 1226.83 1.92969 1231.54 5.78906C1236.24 9.64845 1238.77 16.0065 1239.11 24.8633C1239.26 26.8424 1239.29 29.2917 1239.19 32.211C1239.14 35.0807 1239.04 37.8269 1238.89 40.4492H1222.1C1222.55 33.9674 1222.6 27.6589 1222.25 21.5235C1221.86 16.8724 1217.33 14.5469 1208.66 14.5469C1203.96 14.5469 1200.56 15.1406 1198.48 16.3281C1196.4 17.5156 1195.22 19.2474 1194.92 21.5235C1194.57 23.9974 1194.4 26.4961 1194.4 29.0195C1194.45 31.4935 1194.62 33.9674 1194.92 36.4414C1195.16 38.6185 1195.96 40.4987 1197.29 42.082C1198.63 43.6159 1201.4 44.6549 1205.61 45.1992L1216.98 47.3515C1223.02 48.4401 1227.65 50.0977 1230.87 52.3242C1234.09 54.5508 1236.34 57.3216 1237.63 60.6367C1238.97 63.9021 1239.73 67.7616 1239.93 72.2146C1240.08 74.1937 1240.13 76.0988 1240.08 77.9298C1240.03 79.7607 1239.93 81.6158 1239.78 83.4961C1239.38 92.4521 1236.81 98.8595 1232.06 102.719C1227.35 106.529 1219.6 108.434 1208.81 108.434ZM1344.52 107.246H1327.14V16.9961H1306.94V1.26172H1364.65V16.9961H1344.52V107.246ZM1388.2 107.246H1370.82V1.26172H1388.2V45.5703H1415.17V1.26172H1432.55V107.246H1415.17V61.3047H1388.2V107.246ZM1495.09 107.246H1443.17V1.26172H1495.09V16.9961H1460.55V45.5703H1493.09V61.3047H1460.55V91.5116H1495.09V107.246ZM1600.8 107.246H1572.2L1562.99 1.26172H1580.52L1583.64 48.168L1585.64 91.5116H1588.91L1589.13 48.168L1597.16 2.0039H1619.96L1627.99 48.168L1628.14 91.5116H1631.48L1633.48 48.168L1636.61 1.26172H1654.06L1644.92 107.246H1616.25L1611.79 76.6682L1610.16 17.1445H1606.97L1605.18 76.6682L1600.8 107.246ZM1692.61 108.434C1681.67 108.434 1673.8 106.529 1668.99 102.719C1664.19 98.8595 1661.66 92.4768 1661.42 83.5702C1661.07 74.169 1660.9 64.3973 1660.9 54.2539C1660.9 44.0612 1661.07 34.2643 1661.42 24.8633C1661.66 16.0065 1664.19 9.64845 1668.99 5.78906C1673.8 1.92969 1681.67 0 1692.61 0C1703.61 0 1711.48 1.92969 1716.23 5.78906C1721.04 9.64845 1723.56 16.0065 1723.81 24.8633C1724.16 34.3633 1724.33 44.1849 1724.33 54.3281C1724.33 64.422 1724.16 74.169 1723.81 83.5702C1723.56 92.4768 1721.04 98.8595 1716.23 102.719C1711.48 106.529 1703.61 108.434 1692.61 108.434ZM1692.61 93.8866C1697.47 93.8866 1700.96 93.2932 1703.09 92.1057C1705.22 90.9182 1706.33 89.186 1706.43 86.9104C1706.83 80.3789 1707.07 73.3033 1707.17 65.6836C1707.27 58.0144 1707.25 50.3451 1707.1 42.6758C1707 35.0065 1706.78 27.9557 1706.43 21.5235C1706.33 19.1979 1705.19 17.4661 1703.01 16.3281C1700.83 15.1406 1697.36 14.5469 1692.61 14.5469C1687.91 14.5469 1684.46 15.1406 1682.29 16.3281C1680.11 17.4661 1678.94 19.1979 1678.8 21.5235C1678.4 27.9557 1678.15 35.0065 1678.06 42.6758C1677.95 50.3451 1677.98 58.0144 1678.13 65.6836C1678.28 73.3033 1678.5 80.3789 1678.8 86.9104C1678.94 89.186 1680.11 90.9182 1682.29 92.1057C1684.46 93.2932 1687.91 93.8866 1692.61 93.8866ZM1751.59 107.246H1734.21V1.26172H1762.66C1773.31 1.26172 1781.01 3.14193 1785.76 6.90232C1790.57 10.6627 1793.17 16.8724 1793.56 25.5312C1793.91 29.638 1794.06 33.1511 1794.01 36.0703C1794.01 38.9896 1793.86 42.4284 1793.56 46.3867C1793.31 51.8789 1792.05 56.3568 1789.78 59.8203C1787.5 63.2344 1784 65.8318 1779.3 67.6134L1796.61 107.246H1778.04L1762.74 70.5818H1751.59V107.246ZM1751.59 16.9961V54.8477H1762.44C1767.14 54.8477 1770.56 54.2044 1772.69 52.918C1774.82 51.6315 1775.98 49.7761 1776.18 47.3515C1776.83 39.7318 1776.83 32.1367 1776.18 24.5664C1775.98 22.0924 1774.82 20.2123 1772.69 18.9258C1770.56 17.6393 1767.22 16.9961 1762.66 16.9961H1751.59ZM1853.14 107.246H1804.33V1.26172H1821.72V91.5116H1853.14V107.246ZM1890.2 107.246H1860.34V1.26172H1890.36C1901.2 1.26172 1909.05 3.24089 1913.9 7.19923C1918.75 11.1576 1921.28 17.6393 1921.48 26.6445C1921.78 36.4909 1921.92 45.6693 1921.92 54.1797C1921.92 62.6406 1921.78 71.8187 1921.48 81.7146C1921.28 90.8187 1918.75 97.3503 1913.9 101.309C1909.05 105.267 1901.15 107.246 1890.2 107.246ZM1877.73 16.9961V91.5116H1890.2C1899.32 91.5116 1903.95 88.939 1904.1 83.7932C1904.74 64.1003 1904.74 44.3581 1904.1 24.5664C1903.95 19.5195 1899.37 16.9961 1890.36 16.9961H1877.73Z" fill="#1C222F"/>
</g>
<defs>
<clipPath id="clip0_1147_74">
<rect width="1994.01" height="108.434" fill="white"/>
</clipPath>
</defs>
</svg>

<?xml version="1.0" encoding="UTF-8"?>
<svg id="Layer_1" xmlns="http://www.w3.org/2000/svg" version="1.1" xmlns:xlink="http://www.w3.org/1999/xlink" viewBox="0 0 1994 109">
  <!-- Generator: Adobe Illustrator 29.7.1, SVG Export Plug-In . SVG Version: 2.1.1 Build 8)  -->
  <defs>
    <style>
      .st0 {
        fill: #fff;
      }

      .st1 {
        fill: #1c222f;
      }

      .st2 {
        clip-path: url(#clippath);
      }
    </style>
    <clipPath id="clippath">
      <rect class="st0" width="1994.01" height="108.43"/>
    </clipPath>
  </defs>
  <rect class="st0" width="1994.01" height="108.43"/>
  <g class="st2">
    <path class="st1" d="M29.86,107.25H0V1.26h30.01c10.85,0,18.69,1.98,23.55,5.94,4.85,3.96,7.38,10.44,7.58,19.45.3,9.85.45,19.02.45,27.54s-.15,17.64-.45,27.53c-.2,9.1-2.72,15.64-7.58,19.59-4.85,3.96-12.75,5.94-23.7,5.94ZM17.38,17v74.52h12.48c9.11,0,13.74-2.57,13.89-7.72.64-19.69.64-39.44,0-59.23-.15-5.05-4.73-7.57-13.74-7.57h-12.63ZM123.38,107.25h-51.92V1.26h51.92v15.73h-34.54v28.57h32.54v15.73h-32.54v30.21h34.54v15.73ZM161.27,108.43c-10.89,0-18.69-1.9-23.4-5.71-4.7-3.86-7.26-10.27-7.65-19.22-.4-5.15-.27-10.42.37-15.81h16.64c-.3,3.41-.47,6.75-.52,10.02,0,3.27.17,6.31.52,9.13.25,2.28,1.44,4.03,3.57,5.27,2.18,1.19,5.65,1.78,10.4,1.78s8.07-.59,10.1-1.78c2.08-1.24,3.27-2.99,3.57-5.27.35-2.57.5-5,.45-7.27-.05-2.33-.2-4.77-.45-7.35-.25-2.13-1.04-4.01-2.38-5.64-1.34-1.63-3.99-2.72-7.95-3.27l-12.33-2.6c-5.84-1.14-10.35-2.77-13.52-4.9-3.12-2.13-5.32-4.8-6.61-8.02-1.29-3.22-2.03-7-2.23-11.36-.1-2.08-.15-4.06-.15-5.94.05-1.88.12-3.76.22-5.64.3-8.86,2.8-15.21,7.5-19.07,4.7-3.86,12.63-5.79,23.77-5.79,10.5,0,18.1,1.93,22.8,5.79,4.7,3.86,7.23,10.22,7.58,19.07.15,1.98.17,4.43.07,7.35-.05,2.87-.15,5.62-.3,8.24h-16.79c.45-6.48.49-12.79.15-18.93-.4-4.65-4.93-6.98-13.59-6.98-4.71,0-8.1.59-10.18,1.78-2.08,1.19-3.27,2.92-3.57,5.2-.35,2.47-.52,4.97-.52,7.5.05,2.47.22,4.95.52,7.42.25,2.18,1.04,4.06,2.38,5.64,1.34,1.53,4.11,2.57,8.32,3.12l11.37,2.15c6.04,1.09,10.67,2.75,13.89,4.97,3.22,2.23,5.47,5,6.76,8.31,1.34,3.27,2.11,7.12,2.3,11.58.15,1.98.2,3.88.15,5.72-.05,1.83-.15,3.69-.3,5.57-.4,8.96-2.97,15.36-7.73,19.22-4.71,3.81-12.46,5.71-23.25,5.71ZM220.55,107.25h-17.38V1.26h17.38v105.98ZM263.78,108.43c-10.89,0-18.67-1.9-23.32-5.71-4.61-3.86-7.06-10.27-7.35-19.22-.25-5.49-.42-11.7-.52-18.63-.05-6.93-.05-13.8,0-20.63.1-6.88.27-12.99.52-18.33.3-9.4,2.77-16.06,7.43-19.96,4.71-3.96,12.43-5.94,23.18-5.94s17.73,1.93,22.43,5.79c4.7,3.86,7.3,10.22,7.8,19.07.25,2.28.35,4.87.3,7.79,0,2.87-.1,5.47-.3,7.79h-17.38c.2-2.67.3-5.81.3-9.43.05-3.66-.05-6.83-.3-9.5-.4-4.65-4.68-6.98-12.85-6.98s-12.97,2.33-13.22,6.98c-.35,6.63-.57,13.73-.67,21.3-.1,7.57-.1,15.14,0,22.71.15,7.57.37,14.67.67,21.3.1,2.28,1.21,4.03,3.34,5.27,2.13,1.19,5.45,1.78,9.95,1.78,8.77,0,13.42-2.35,13.96-7.05.1-1.93.15-4.35.15-7.27s-.05-5.39-.15-7.27h-13.3v-15.51h30.31c.2,3.91.3,8.24.3,12.99s-.15,9.33-.45,13.73c-.35,8.96-2.92,15.36-7.73,19.22-4.8,3.81-12.5,5.71-23.1,5.71ZM321.42,107.25h-16.86V1.26h26.82l8.62,33.77,10.4,56.48h4.09l-3.2-46.24-1.26-44.01h16.86v105.98h-27.93l-9.14-35.33-8.47-55h-4.23l2.9,49.8,1.41,40.52ZM473.33,107.25h-17.38V17h-20.21V1.26h57.72v15.73h-20.13v90.25ZM517.01,107.25h-17.38V1.26h17.38v44.31h26.96V1.26h17.38v105.98h-17.38v-45.94h-26.96v45.94ZM585.87,107.25h-17.9L585.94,1.26h30.16l17.97,105.98h-17.83l-3.79-23.75h-22.73l-3.86,23.75ZM594.56,44.38l-3.27,23.38h19.54l-3.19-23.38-3.86-27.39h-5.35l-3.86,27.39ZM673.75,107.25h-17.38V17h-20.21V1.26h57.72v15.73h-20.13v90.25ZM792.9,108.43c-10.74,0-18.42-1.9-23.03-5.71-4.56-3.86-6.96-10.24-7.21-19.15-.2-5.54-.34-11.83-.44-18.85-.05-7.03-.05-14.05,0-21.08.1-7.03.25-13.33.44-18.93.2-7.67,2.65-13.71,7.36-18.11,4.7-4.4,12.3-6.61,22.8-6.61s18.2,1.93,22.95,5.79c4.8,3.86,7.35,10.22,7.65,19.07.1,2.23.13,4.82.08,7.79-.05,2.92-.12,5.52-.22,7.79h-17.38c.09-2.62.15-5.76.15-9.43.05-3.71.02-6.85-.08-9.43-.05-2.33-1.11-4.06-3.19-5.2-2.09-1.19-5.4-1.78-9.96-1.78s-7.55.59-9.58,1.78c-1.98,1.14-3.04,2.87-3.19,5.2-.25,6.63-.42,13.73-.52,21.3-.1,7.52-.1,15.07,0,22.64.1,7.57.27,14.67.52,21.3.15,2.33,1.24,4.08,3.27,5.27,2.04,1.19,5.22,1.78,9.58,1.78,4.81,0,8.3-.59,10.47-1.78,2.18-1.19,3.32-2.94,3.42-5.27.1-2.62.13-5.79.08-9.5-.05-3.76-.12-6.95-.22-9.57h17.46c.15,2.42.22,5.05.22,7.87.05,2.82,0,5.47-.15,7.94-.35,8.91-2.95,15.29-7.8,19.15-4.8,3.81-12.63,5.71-23.47,5.71ZM850.99,107.25h-17.38V1.26h17.38v44.31h26.96V1.26h17.38v105.98h-17.38v-45.94h-26.96v45.94ZM919.84,107.25h-17.9L919.92,1.26h30.16l17.98,105.98h-17.83l-3.78-23.75h-22.73l-3.87,23.75ZM928.53,44.38l-3.26,23.38h19.54l-3.2-23.38-3.86-27.39h-5.35l-3.87,27.39ZM991.45,107.25h-16.86V1.26h26.82l8.62,33.77,10.39,56.48h4.09l-3.19-46.24-1.27-44.01h16.87v105.98h-27.93l-9.14-35.33-8.47-55h-4.23l2.9,49.8,1.41,40.52ZM1078.22,108.43c-10.9,0-18.67-1.9-23.33-5.71-4.61-3.86-7.05-10.27-7.35-19.22-.25-5.49-.42-11.7-.52-18.63-.05-6.93-.05-13.8,0-20.63.1-6.88.27-12.99.52-18.33.3-9.4,2.77-16.06,7.43-19.96,4.7-3.96,12.43-5.94,23.17-5.94s17.73,1.93,22.44,5.79c4.7,3.86,7.3,10.22,7.79,19.07.26,2.28.35,4.87.3,7.79,0,2.87-.09,5.47-.3,7.79h-17.38c.21-2.67.3-5.81.3-9.43.05-3.66-.05-6.83-.3-9.5-.39-4.65-4.68-6.98-12.85-6.98-8.57,0-12.97,2.33-13.22,6.98-.35,6.63-.57,13.73-.66,21.3-.11,7.57-.11,15.14,0,22.71.14,7.57.36,14.67.66,21.3.1,2.28,1.21,4.03,3.34,5.27,2.13,1.19,5.45,1.78,9.96,1.78,8.76,0,13.42-2.35,13.96-7.05.1-1.93.15-4.35.15-7.27s-.05-5.39-.15-7.27h-13.29v-15.51h30.3c.2,3.91.3,8.24.3,12.99s-.15,9.33-.44,13.73c-.35,8.96-2.93,15.36-7.73,19.22-4.81,3.81-12.5,5.71-23.1,5.71ZM1170.93,107.25h-51.93V1.26h51.93v15.73h-34.55v28.57h32.54v15.73h-32.54v30.21h34.55v15.73ZM1208.81,108.43c-10.9,0-18.7-1.9-23.4-5.71-4.7-3.86-7.26-10.27-7.65-19.22-.4-5.15-.27-10.42.37-15.81h16.64c-.3,3.41-.47,6.75-.52,10.02,0,3.27.17,6.31.52,9.13.24,2.28,1.43,4.03,3.56,5.27,2.18,1.19,5.65,1.78,10.41,1.78s8.07-.59,10.09-1.78c2.08-1.24,3.27-2.99,3.57-5.27.34-2.57.5-5,.45-7.27-.05-2.33-.2-4.77-.45-7.35-.24-2.13-1.04-4.01-2.37-5.64-1.34-1.63-3.99-2.72-7.95-3.27l-12.33-2.6c-5.85-1.14-10.35-2.77-13.52-4.9-3.12-2.13-5.33-4.8-6.61-8.02-1.29-3.22-2.04-7-2.24-11.36-.09-2.08-.14-4.06-.14-5.94.05-1.88.12-3.76.22-5.64.3-8.86,2.8-15.21,7.51-19.07,4.7-3.86,12.62-5.79,23.77-5.79,10.49,0,18.09,1.93,22.8,5.79,4.7,3.86,7.23,10.22,7.57,19.07.15,1.98.18,4.43.08,7.35-.05,2.87-.15,5.62-.3,8.24h-16.79c.45-6.48.5-12.79.15-18.93-.39-4.65-4.92-6.98-13.59-6.98-4.7,0-8.1.59-10.18,1.78-2.08,1.19-3.26,2.92-3.56,5.2-.35,2.47-.52,4.97-.52,7.5.05,2.47.22,4.95.52,7.42.24,2.18,1.04,4.06,2.37,5.64,1.34,1.53,4.11,2.57,8.32,3.12l11.37,2.15c6.04,1.09,10.67,2.75,13.89,4.97,3.22,2.23,5.47,5,6.76,8.31,1.34,3.27,2.1,7.12,2.3,11.58.15,1.98.2,3.88.15,5.72-.05,1.83-.15,3.69-.3,5.57-.4,8.96-2.97,15.36-7.72,19.22-4.71,3.81-12.46,5.71-23.25,5.71ZM1344.52,107.25h-17.38V17h-20.2V1.26h57.71v15.73h-20.13v90.25ZM1388.2,107.25h-17.38V1.26h17.38v44.31h26.97V1.26h17.38v105.98h-17.38v-45.94h-26.97v45.94ZM1495.09,107.25h-51.92V1.26h51.92v15.73h-34.54v28.57h32.54v15.73h-32.54v30.21h34.54v15.73ZM1600.8,107.25h-28.6l-9.21-105.98h17.53l3.12,46.91,2,43.34h3.27l.22-43.34,8.03-46.16h22.8l8.03,46.16.15,43.34h3.34l2-43.34,3.13-46.91h17.45l-9.14,105.98h-28.67l-4.46-30.58-1.63-59.52h-3.19l-1.79,59.52-4.38,30.58ZM1692.61,108.43c-10.94,0-18.81-1.9-23.62-5.71-4.8-3.86-7.33-10.24-7.57-19.15-.35-9.4-.52-19.17-.52-29.32s.17-19.99.52-29.39c.24-8.86,2.77-15.21,7.57-19.07,4.81-3.86,12.68-5.79,23.62-5.79s18.87,1.93,23.62,5.79c4.81,3.86,7.33,10.22,7.58,19.07.35,9.5.52,19.32.52,29.46s-.17,19.84-.52,29.24c-.25,8.91-2.77,15.29-7.58,19.15-4.75,3.81-12.62,5.71-23.62,5.71ZM1692.61,93.89c4.86,0,8.35-.59,10.48-1.78s3.24-2.92,3.34-5.2c.4-6.53.64-13.61.74-21.23.1-7.67.08-15.34-.07-23.01-.1-7.67-.32-14.72-.67-21.15-.1-2.33-1.24-4.06-3.42-5.2-2.18-1.19-5.65-1.78-10.4-1.78s-8.15.59-10.32,1.78c-2.18,1.14-3.35,2.87-3.49,5.2-.4,6.43-.65,13.48-.74,21.15-.11,7.67-.08,15.34.07,23.01.15,7.62.37,14.7.67,21.23.14,2.28,1.31,4.01,3.49,5.2,2.17,1.19,5.62,1.78,10.32,1.78ZM1751.59,107.25h-17.38V1.26h28.45c10.65,0,18.35,1.88,23.1,5.64,4.81,3.76,7.41,9.97,7.8,18.63.35,4.11.5,7.62.45,10.54,0,2.92-.15,6.36-.45,10.32-.25,5.49-1.51,9.97-3.78,13.43-2.28,3.41-5.78,6.01-10.48,7.79l17.31,39.63h-18.57l-15.3-36.66h-11.15v36.66ZM1751.59,17v37.85h10.85c4.7,0,8.12-.64,10.25-1.93,2.13-1.29,3.29-3.14,3.49-5.57.65-7.62.65-15.21,0-22.79-.2-2.47-1.36-4.35-3.49-5.64-2.13-1.29-5.47-1.93-10.03-1.93h-11.07ZM1853.14,107.25h-48.81V1.26h17.39v90.25h31.42v15.73ZM1890.2,107.25h-29.86V1.26h30.02c10.84,0,18.69,1.98,23.54,5.94,4.85,3.96,7.38,10.44,7.58,19.45.3,9.85.44,19.02.44,27.54s-.14,17.64-.44,27.53c-.2,9.1-2.73,15.64-7.58,19.59-4.85,3.96-12.75,5.94-23.7,5.94ZM1877.73,17v74.52h12.47c9.12,0,13.75-2.57,13.9-7.72.64-19.69.64-39.44,0-59.23-.15-5.05-4.73-7.57-13.74-7.57h-12.63Z"/>
  </g>
</svg>
